src/images/global/icons/payment/card-visa.svg

<?xml version="1.0" encoding="UTF-8"?>
<svg width="48px" height="48px" viewBox="0 0 48 48" version="1.1" xmlns="http://www.w3.org/2000/svg" xmlns:xlink="http://www.w3.org/1999/xlink">
    <!-- Generator: Sketch 46.2 (44496) - http://www.bohemiancoding.com/sketch -->
    <title>card/visa</title>
    <desc>Created with Sketch.</desc>
    <defs>
        <linearGradient x1="0%" y1="0%" x2="50%" y2="100%" id="linearGradient-1">
            <stop stop-color="#516DC2" offset="0%"></stop>
            <stop stop-color="#283B8F" offset="100%"></stop>
        </linearGradient>
        <rect id="path-2" x="0" y="0" width="36" height="22" rx="2"></rect>
        <filter x="-9.7%" y="-11.4%" width="119.4%" height="131.8%" filterUnits="objectBoundingBox" id="filter-3">
            <feOffset dx="0" dy="1" in="SourceAlpha" result="shadowOffsetOuter1"></feOffset>
            <feGaussianBlur stdDeviation="1" in="shadowOffsetOuter1" result="shadowBlurOuter1"></feGaussianBlur>
            <feColorMatrix values="0 0 0 0 0.325490196   0 0 0 0 0.376470588   0 0 0 0 0.419607843  0 0 0 1 0" type="matrix" in="shadowBlurOuter1"></feColorMatrix>
        </filter>
    </defs>
    <g id="Symbols" stroke="none" stroke-width="1" fill="none" fill-rule="evenodd">
        <g id="card/visa">
            <g id="Icon" transform="translate(6.000000, 13.000000)">
                <g id="Card">
                    <use fill="black" fill-opacity="1" filter="url(#filter-3)" xlink:href="#path-2"></use>
                    <use fill="url(#linearGradient-1)" fill-rule="evenodd" xlink:href="#path-2"></use>
                </g>
                <path d="M29.2900029,7.13997142 L27.6571894,7.13997142 C27.1500606,7.13997142 26.7728394,7.27671273 26.5499854,7.77737973 L23.4120918,14.8157887 L25.6313919,14.8157887 C25.6313919,14.8157887 25.9933938,13.8693666 26.0754693,13.6621012 C26.3184346,13.6621012 28.4746833,13.6653313 28.781787,13.6653313 C28.8448384,13.9334304 29.039428,14.8157887 29.039428,14.8157887 L31,14.8157887 L29.2900029,7.13997142 L29.2900029,7.13997142 Z M26.6836978,12.0906528 C26.8576326,11.6497429 27.5256512,9.94424497 27.5256512,9.94424497 C27.5142367,9.96524068 27.6979554,9.50010489 27.8072083,9.21101007 L27.9496174,9.87318256 C27.9496174,9.87318256 28.3545595,11.7068081 28.4393528,12.0906528 L26.6836978,12.0906528 L26.6836978,12.0906528 Z M23.5599364,12.3027634 C23.5447171,13.8978992 22.1010578,14.9272275 19.8795836,14.9272275 C18.9321821,14.9175372 18.0195677,14.7328826 17.5249404,14.5180803 L17.8222603,12.7991236 L18.0945771,12.9218677 C18.7886859,13.2082708 19.2381988,13.3240164 20.0845006,13.3240164 C20.6916419,13.3240164 21.3417235,13.0882184 21.348246,12.5740926 C21.3520508,12.2376228 21.0759293,11.9980564 20.2524564,11.6212102 C19.4501819,11.2535161 18.3880922,10.6376418 18.4016808,9.53455939 C18.4130953,8.04171037 19.885019,7 21.9733244,7 C22.7919053,7 23.4479659,7.166889 23.8664966,7.32247262 L23.5805912,8.9870558 L23.3898064,8.89822779 C23.0006272,8.74318252 22.4994774,8.59352077 21.8080863,8.60428781 C20.9808086,8.60428781 20.5970648,8.94560273 20.5970648,9.26484523 C20.5927165,9.62446411 21.0449471,9.86133882 21.7841703,10.2177276 C23.0055191,10.7641545 23.5691767,11.4300954 23.5599364,12.3027634 L23.5599364,12.3027634 Z M5,7.21964746 L5.02717732,7.0656789 L8.30367521,7.0656789 C8.74557846,7.0823678 9.10160137,7.22180086 9.22444286,7.68962842 L9.93703224,11.083397 C9.23694443,9.30845171 7.54977631,7.83175324 5,7.21964746 L5,7.21964746 Z M14.5560898,7.13889472 L11.227955,14.8044833 L8.99180499,14.8082518 L7.09917632,8.40348265 C8.45967304,9.26592194 9.61851403,10.6344117 10.0267174,11.5872941 L10.2473972,12.3781326 L12.3172221,7.14050977 L14.5560898,7.13889472 L14.5560898,7.13889472 L14.5560898,7.13889472 Z M15.4105448,7.1324345 L17.5249404,7.1324345 L16.202492,14.8125586 L14.0891834,14.8125586 L15.4105448,7.1324345 L15.4105448,7.1324345 Z" id="Visa-Logo" fill="#FFFFFF"></path>
            </g>
        </g>
    </g>
</svg>

<?xml version="1.0" encoding="utf-8"?>
<!-- Generator: Adobe Illustrator 21.0.2, SVG Export Plug-In . SVG Version: 6.00 Build 0)  -->
<svg version="1.1" id="payment-card-visa-Layer_1" xmlns="http://www.w3.org/2000/svg" xmlns:xlink="http://www.w3.org/1999/xlink" x="0px" y="0px"
	 viewBox="0 0 48 48" style="enable-background:new 0 0 48 48;" xml:space="preserve">
<title>card/visa</title>
<desc>Created with Sketch.</desc>
<g id="payment-card-visa-Symbols">
	<g id="payment-card-visa-card_x2F_visa">
		<g id="payment-card-visa-Icon" transform="translate(6.000000, 13.000000)">
			<g id="payment-card-visa-Card">
				<g>
					<path id="payment-card-visa-path-2_2_" d="M2,0h32c1.1,0,2,0.9,2,2v18c0,1.1-0.9,2-2,2H2c-1.1,0-2-0.9-2-2V2C0,0.9,0.9,0,2,0z"/>
				</g>
				<g>
					<path id="payment-card-visa-path-2_1_" style="fill:none;" d="M2,0h32c1.1,0,2,0.9,2,2v18c0,1.1-0.9,2-2,2H2c-1.1,0-2-0.9-2-2V2C0,0.9,0.9,0,2,0z
						"/>
				</g>
			</g>
			<path id="payment-card-visa-Visa-Logo" style="fill:#FFFFFF;" d="M29.3,7.1h-1.6c-0.5,0-0.9,0.1-1.1,0.6l-3.1,7h2.2c0,0,0.4-0.9,0.4-1.2
				c0.2,0,2.4,0,2.7,0c0.1,0.3,0.3,1.2,0.3,1.2h2L29.3,7.1L29.3,7.1z M26.7,12.1c0.2-0.4,0.8-2.1,0.8-2.1s0.2-0.4,0.3-0.7l0.1,0.7
				c0,0,0.4,1.8,0.5,2.2L26.7,12.1L26.7,12.1z M23.6,12.3c0,1.6-1.5,2.6-3.7,2.6c-0.9,0-1.9-0.2-2.4-0.4l0.3-1.7l0.3,0.1
				c0.7,0.3,1.1,0.4,2,0.4c0.6,0,1.3-0.2,1.3-0.7c0-0.3-0.3-0.6-1.1-1c-0.8-0.4-1.9-1-1.9-2.1C18.4,8,19.9,7,22,7
				c0.8,0,1.5,0.2,1.9,0.3L23.6,9l-0.2-0.1c-0.4-0.2-0.9-0.3-1.6-0.3c-0.8,0-1.2,0.3-1.2,0.7s0.4,0.6,1.2,1
				C23,10.8,23.6,11.4,23.6,12.3L23.6,12.3z M5,7.2V7h3.3c0.4,0,0.8,0.2,0.9,0.6L9.9,11C9.2,9.3,7.5,7.8,5,7.2L5,7.2z M14.6,7.1
				l-3.3,7.7H9.1l-2-6.4c1.4,0.9,2.5,2.2,2.9,3.2l0.2,0.8l2.1-5.2L14.6,7.1L14.6,7.1L14.6,7.1z M15.4,7.1h2.1l-1.3,7.7h-2.1
				L15.4,7.1L15.4,7.1z"/>
		</g>
	</g>
</g>
</svg>
